;FLAVOR:Marlin
;TIME:1735
;Filament used: 0.0982323m
;Layer height: 0.05
;MINX:92.876
;MINY:94
;MINZ:0.36
;MAXX:107.125
;MAXY:105.628
;MAXZ:10.385
;Generated with Cura_SteamEngine 4.8.0
M104 S200
M105
M109 S200
M82 ;absolute extrusion mode
G28 ;Home
G1 Z15.0 F2000 ;Move the platform
G92 E0
G92 E0
G1 F1500 E-6.5
;LAYER_COUNT:188
;LAYER:-14
M106 S255
M204 S1000
G0 F6000 X97.02 Y98.377 Z0.36
M204 S800
;TYPE:SUPPORT-INTERFACE
G1 F1500 E0
G1 F600 X97.263 Y98.165 E0.03861
G1 X97.712 Y97.839 E0.10505
G1 X97.953 Y97.688 E0.1391
G1 X98.264 Y97.523 E0.18126
G1 X98.489 Y97.402 E0.21185
G1 X98.83 Y97.173 E0.26103
G1 X99.019 Y97.035 E0.28905
G1 X99.258 Y96.886 E0.32277
G1 X99.446 Y96.835 E0.3461
G1 X99.76 Y96.808 E0.38383
G1 X100.477 Y96.808 E0.46968
G1 X100.76 Y96.829 E0.50366
G1 X100.938 Y96.896 E0.52644
G1 X101.204 Y97.055 E0.56354
G1 X101.387 Y97.188 E0.59063
G1 X101.456 Y97.23 E0.6003
G1 X101.448 Y97.243 E0.60213
G1 X102.043 Y97.601 E0.68527
G1 X102.135 Y97.651 E0.69781
G1 X102.628 Y97.948 E0.76673
G1 X103.066 Y98.266 E0.83153
G1 X103.405 Y98.552 E0.88464
G1 X103.523 Y98.658 E0.90363
G1 X103.971 Y99.152 E0.98348
G1 X104.072 Y99.307 E1.00564
G1 X104.204 Y99.614 E1.04565
G1 X104.392 Y100.188 E1.11797
G1 X104.45 Y100.407 E1.1451
G1 X104.467 Y100.515 E1.15819
G1 X104.47 Y100.633 E1.17232
G1 X104.455 Y100.772 E1.18906
G1 X104.424 Y100.949 E1.21058
G1 X104.198 Y101.653 E1.29911
G1 X104.098 Y101.902 E1.33124
G1 X103.981 Y102.048 E1.35364
G1 X103.734 Y102.264 E1.39293
G1 X103.308 Y102.573 E1.45594
G1 X103.029 Y102.747 E1.49531
G1 X102.585 Y102.982 E1.55546
G1 X102.593 Y102.996 E1.55739
G1 X102.095 Y103.343 E1.63007
G1 X101.586 Y103.802 E1.71214
G1 X101.046 Y104.453 E1.81341
G1 X100.904 Y104.656 E1.84307
G1 X100.849 Y104.717 E1.85291
G1 X100.704 Y104.842 E1.87583
G1 X100.676 Y104.86 E1.87982
G1 X100.544 Y104.922 E1.89728
G1 X100.476 Y104.943 E1.9058
G1 X100.411 Y104.955 E1.91371
G1 X100.216 Y104.965 E1.93709
G1 X99.829 Y104.965 E1.98343
G1 X99.55 Y104.945 E2.01692
G1 X99.498 Y104.934 E2.02329
G1 X99.381 Y104.892 E2.03817
G1 X99.311 Y104.855 E2.04765
G1 X99.258 Y104.818 E2.05539
G1 X98.71 Y104.328 E2.14341
G1 X98.703 Y104.335 E2.1446
G1 X98.658 Y104.295 E2.15181
G1 X98.09 Y103.909 E2.23404
G1 X97.279 Y103.52 E2.34173
G1 X96.754 Y103.322 E2.40892
G1 X96.49 Y103.163 E2.44582
G1 X96.027 Y102.827 E2.51432
G1 X95.812 Y102.645 E2.54805
G1 X95.714 Y102.495 E2.5695
G1 X95.585 Y102.192 E2.60893
G1 X95.416 Y101.676 E2.67394
G1 X95.343 Y101.381 E2.71033
G1 X95.334 Y101.304 E2.71961
G1 X95.337 Y101.279 E2.72263
G1 X95.43 Y100.879 E2.7718
G1 X95.601 Y100.355 E2.8378
G1 X95.705 Y100.097 E2.87111
G1 X95.775 Y99.974 E2.88805
G1 X95.956 Y99.751 E2.92244
G1 X96.296 Y99.402 E2.98078
G1 X96.288 Y99.394 E2.98214
G1 X96.646 Y98.936 E3.05174
G1 X96.861 Y98.593 E3.10021
G1 X96.899 Y98.526 E3.10944
G1 X97.02 Y98.377 E3.13242
M204 S1000
G0 F6000 X97.6 Y97.92
M204 S800
G1 F600 X97.6 Y103.673 E3.82126
M204 S1000
G0 F6000 X96 Y102.804
M204 S800
G1 F600 X96 Y99.705 E4.19233
M204 S1000
G0 F6000 X99.2 Y96.922
M204 S800
G1 F600 X99.2 Y104.766 E5.13154
M204 S1000
G0 F6000 X100.8 Y104.76
M204 S800
G1 F600 X100.8 Y96.845 E6.07925
M204 S1000
G0 F6000 X102.4 Y97.811
M204 S800
G1 F600 X102.4 Y103.131 E6.71625
M204 S1000
G0 F6000 X104 Y102.025
M204 S800
G1 F600 X104 Y99.197 E7.05487
M204 S1000
G0 F300 X104 Y99.197 Z0.435
G0 F6000 X104.296 Y99.579
;TIME_ELAPSED:11.160878
;LAYER:-13
M204 S800
;TYPE:SUPPORT
G1 F600 X104.158 Y99.257 E7.06142
G1 X104.054 Y99.097 E7.06499
G1 X103.591 Y98.586 E7.07789
G1 X103.461 Y98.468 E7.08118
G1 X103.145 Y98.202 E7.0889
G1 X102.671 Y97.857 E7.09987
G1 X102.197 Y97.571 E7.11023
G1 X102.091 Y97.514 E7.11248
G1 X101.962 Y97.437 E7.11529
G1 X104.39 Y99.865 E7.17953
G1 X104.487 Y100.163 E7.18539
G1 X104.547 Y100.386 E7.18972
G1 X104.565 Y100.503 E7.19193
G1 X104.569 Y100.643 E7.19455
G1 X104.555 Y100.769 E7.19692
G1 X104.519 Y100.974 E7.20082
G1 X104.483 Y101.089 E7.20307
G1 X100.102 Y96.708 E7.31898
G1 X99.751 Y96.708 E7.32555
G1 X99.425 Y96.735 E7.33167
G1 X99.221 Y96.791 E7.33563
G1 X99.118 Y96.855 E7.3379
G1 X104.192 Y101.93 E7.47216
G1 X104.183 Y101.952 E7.4726
G1 X104.049 Y102.121 E7.47664
G1 X103.799 Y102.338 E7.48283
G1 X103.608 Y102.477 E7.48725
G1 X98.443 Y97.312 E7.62391
G1 X98.436 Y97.316 E7.62406
G1 X98.163 Y97.463 E7.62986
G1 X97.908 Y97.596 E7.63524
G1 X97.717 Y97.717 E7.63947
G1 X102.917 Y102.917 E7.77706
G1 X102.722 Y103.021 E7.78119
G1 X102.727 Y103.028 E7.78135
G1 X102.707 Y103.038 E7.78177
G1 X102.234 Y103.366 E7.79254
G1 X97.068 Y98.2 E7.92922
G1 X96.949 Y98.304 E7.93218
G1 X96.817 Y98.467 E7.9361
G1 X96.775 Y98.54 E7.93768
G1 X96.583 Y98.845 E7.94442
G1 X101.635 Y103.898 E8.0781
G1 X101.124 Y104.513 E8.09306
M204 S1000
G0 F6000 X101.122 Y104.516
M204 S800
G1 F600 X96.081 Y99.475 E8.22644
G1 X95.882 Y99.683 E8.23182
G1 X95.689 Y99.919 E8.23753
G1 X95.616 Y100.051 E8.24035
G1 X95.589 Y100.115 E8.24165
G1 X100.51 Y105.035 E8.37184
G1 X100.498 Y105.04 E8.37208
G1 X100.433 Y105.052 E8.37332
G1 X100.201 Y105.064 E8.37766
G1 X99.821 Y105.064 E8.38477
G1 X99.538 Y105.044 E8.39008
G1 X99.47 Y105.03 E8.39138
G1 X99.334 Y104.981 E8.39408
G1 X99.313 Y104.97 E8.39453
G1 X95.305 Y100.962 E8.50057
G1 X95.24 Y101.249 E8.50608
G1 X95.235 Y101.281 E8.50668
G1 X95.233 Y101.31 E8.50723
G1 X95.245 Y101.399 E8.50891
G1 X95.32 Y101.703 E8.51476
G1 X95.49 Y102.226 E8.52505
G1 X95.528 Y102.316 E8.52688
G1 X96.489 Y103.277 E8.55231
G1 X96.433 Y103.243 E8.55353
G1 X95.955 Y102.898 E8.56456
G1 X95.739 Y102.714 E8.56987
G1 X95.622 Y102.536 E8.57385
M204 S1000
G1 F1500 E2.07385
G0 F300 X95.622 Y102.536 Z0.485
G0 F6000 X95.068 Y103.41
G0 X96.058 Y104.118
G0 X98.563 Y105.628
G0 X99.101 Y105.013
;TIME_ELAPSED:19.944306
;LAYER:-12
M107
M204 S800
;TYPE:SUPPORT-INTERFACE
G1 F1500 E8.57385
G1 F1200 X99.182 Y105.07 E8.57447
G1 X99.512 Y105.193 E8.57667
G1 X99.826 Y105.215 E8.57863
G1 X100.21 Y105.215 E8.58103
G1 X100.536 Y105.186 E8.58307
G1 X100.849 Y105.046 E8.58521
G1 X100.898 Y105 E8.58562
G1 X99.086 Y105 E8.59692
G1 X98.75 Y104.7 E8.59973
G1 X101.178 Y104.7 E8.61488
G1 X101.245 Y104.605 E8.6156
G1 X101.414 Y104.4 E8.61726
G1 X98.367 Y104.4 E8.63626
G1 X97.965 Y104.127 E8.63929
G1 X97.908 Y104.1 E8.63968
G1 X101.663 Y104.1 E8.6631
G1 X101.766 Y103.976 E8.66411
G1 X101.961 Y103.8 E8.66574
G1 X97.284 Y103.8 E8.69491
G1 X97.18 Y103.75 E8.69563
G1 X96.65 Y103.55 E8.69916
G1 X96.566 Y103.5 E8.69977
G1 X102.307 Y103.5 E8.73558
G1 X102.738 Y103.2 E8.73885
G1 X96.114 Y103.2 E8.78016
G1 X95.877 Y103.027 E8.78199
G1 X95.725 Y102.9 E8.78322
G1 X103.256 Y102.9 E8.83019
G1 X103.449 Y102.78 E8.83161
G1 X103.697 Y102.6 E8.83352
G1 X95.486 Y102.6 E8.88472
G1 X95.359 Y102.3 E8.88676
G1 X104.074 Y102.3 E8.9411
G1 X104.162 Y102.224 E8.94183
G1 X104.325 Y102.007 E8.94352
G1 X104.327 Y102 E8.94357
G1 X95.26 Y102 E9.00011
G1 X95.174 Y101.737 E9.00184
G1 X95.164 Y101.7 E9.00208
G1 X104.445 Y101.7 E9.05996
G1 X104.541 Y101.4 E9.06192
G1 X95.095 Y101.4 E9.12083
G1 X95.089 Y101.239 E9.12183
G1 X95.122 Y101.1 E9.12272
G1 X104.637 Y101.1 E9.18206
G1 X104.667 Y101.009 E9.18266
G1 X104.703 Y100.8 E9.18398
G1 X95.194 Y100.8 E9.24328
G1 X95.292 Y100.5 E9.24525
G1 X104.715 Y100.5 E9.30402
G1 X104.716 Y100.493 E9.30406
G1 X104.651 Y100.2 E9.30593
G1 X95.394 Y100.2 E9.36366
G1 X95.481 Y99.985 E9.36511
G1 X95.53 Y99.9 E9.36572
G1 X104.56 Y99.9 E9.42203
G1 X104.462 Y99.6 E9.424
G1 X95.757 Y99.6 E9.47829
G1 X95.769 Y99.584 E9.47841
G1 X95.945 Y99.405 E9.47998
G1 X96.041 Y99.304 E9.48085
G1 X96.045 Y99.3 E9.48088
G1 X104.342 Y99.3 E9.53262
G1 X104.292 Y99.184 E9.53341
G1 X104.172 Y99.002 E9.53477
M204 S1000
G0 F6000 X104.171 Y99
M204 S800
G1 F1200 X96.279 Y99 E9.58399
G1 X96.441 Y98.792 E9.58563
G1 X96.499 Y98.7 E9.58631
G1 X103.899 Y98.7 E9.63246
G1 X103.694 Y98.475 E9.63436
G1 X103.612 Y98.4 E9.63505
G1 X96.694 Y98.4 E9.67819
G1 X96.839 Y98.202 E9.67972
G1 X96.957 Y98.1 E9.6807
G1 X103.257 Y98.1 E9.71998
G1 X103.227 Y98.075 E9.72023
G1 X102.85 Y97.8 E9.72314
G1 X97.339 Y97.8 E9.75751
G1 X97.567 Y97.634 E9.75926
G1 X97.782 Y97.5 E9.76084
G1 X102.369 Y97.5 E9.78945
G1 X102.264 Y97.437 E9.79021
G1 X102.167 Y97.384 E9.7909
G1 X101.862 Y97.2 E9.79312
G1 X98.336 Y97.2 E9.81511
G1 X98.36 Y97.187 E9.81528
G1 X98.687 Y96.968 E9.81774
G1 X98.78 Y96.9 E9.81846
G1 X101.417 Y96.9 E9.8349
G1 X101.349 Y96.851 E9.83542
G1 X101.046 Y96.669 E9.83763
G1 X100.85 Y96.6 E9.83892
G1 X99.359 Y96.6 E9.84822
G1 X99.407 Y96.586 E9.84853
G1 X99.739 Y96.558 E9.85061
G1 X100.48 Y96.558 E9.85523
G1 X100.795 Y96.581 E9.8572
M204 S1000
G1 F1500 E3.3572
G0 F300 X100.795 Y96.581 Z0.535
G0 F6000 X100.851 Y95.766
G0 X99.259 Y95.782
G0 X98.764 Y95.94
G0 X97.111 Y96.959
G0 X96.251 Y97.635
G0 X94.805 Y99.401
G0 X94.389 Y100.761
G0 X94.269 Y101.357
G0 X95.099 Y101.436
;TIME_ELAPSED:32.042608
;LAYER:-11
M204 S800
;TYPE:SUPPORT-INTERFACE
G1 F1500 E9.8572
G1 F1200 X95.173 Y101.736 E9.85913
G1 X95.352 Y102.283 E9.86272
G1 X95.399 Y102.394 E9.86347
G1 X95.399 Y100.183 E9.87726
G1 X95.48 Y99.984 E9.8786
G1 X95.563 Y99.838 E9.87965
G1 X95.699 Y99.668 E9.881
G1 X95.699 Y102.877 E9.90102
G1 X95.876 Y103.026 E9.90246
G1 X95.999 Y103.115 E9.90341
G1 X95.999 Y99.346 E9.92691
G1 X96.04 Y99.303 E9.92728
G1 X96.299 Y98.971 E9.92991
G1 X96.299 Y103.333 E9.95711
G1 X96.339 Y103.363 E9.95742
G1 X96.599 Y103.519 E9.95931
G1 X96.599 Y98.537 E9.99038
G1 X96.646 Y98.463 E9.99093
G1 X96.838 Y98.201 E9.99295
G1 X96.899 Y98.147 E9.99346
G1 X96.899 Y103.643 E10.02774
G1 X97.179 Y103.749 E10.0296
G1 X97.199 Y103.758 E10.02974
G1 X97.199 Y97.899 E10.06628
G1 X97.499 Y97.681 E10.06859
G1 X97.499 Y103.902 E10.10739
G1 X97.799 Y104.046 E10.10946
G1 X97.799 Y97.487 E10.15037
G1 X97.829 Y97.469 E10.15058
G1 X98.099 Y97.324 E10.1525
G1 X98.099 Y104.217 E10.19548
G1 X98.399 Y104.42 E10.19774
G1 X98.399 Y97.159 E10.24302
G1 X98.686 Y96.967 E10.24518
G1 X98.699 Y96.957 E10.24528
G1 X98.699 Y104.663 E10.29334
G1 X98.713 Y104.676 E10.29345
G1 X98.718 Y104.671 E10.2935
G1 X98.999 Y104.921 E10.29584
G1 X98.999 Y96.75 E10.3468
G1 X99.141 Y96.662 E10.34784
G1 X99.299 Y96.616 E10.34887
G1 X99.299 Y105.112 E10.40185
G1 X99.511 Y105.192 E10.40327
G1 X99.599 Y105.198 E10.40382
G1 X99.599 Y96.568 E10.45763
G1 X99.738 Y96.557 E10.4585
G1 X99.899 Y96.557 E10.45951
G1 X99.899 Y105.214 E10.5135
G1 X100.199 Y105.214 E10.51537
G1 X100.199 Y96.557 E10.56935
G1 X100.479 Y96.557 E10.5711
G1 X100.499 Y96.559 E10.57123
G1 X100.499 Y105.189 E10.62504
G1 X100.535 Y105.185 E10.62527
G1 X100.799 Y105.067 E10.62707
G1 X100.799 Y96.582 E10.67999
G1 X101.045 Y96.668 E10.68161
G1 X101.099 Y96.701 E10.68201
G1 X101.099 Y104.811 E10.73258
G1 X101.244 Y104.604 E10.73416
G1 X101.399 Y104.417 E10.73568
G1 X101.399 Y96.888 E10.78263
G1 X101.525 Y96.979 E10.7836
G1 X101.699 Y97.086 E10.78487
G1 X101.699 Y104.055 E10.82833
G1 X101.765 Y103.975 E10.82898
G1 X101.999 Y103.765 E10.83094
G1 X101.999 Y97.283 E10.87136
G1 X102.166 Y97.383 E10.87258
G1 X102.263 Y97.436 E10.87327
G1 X102.299 Y97.458 E10.87353
G1 X102.299 Y103.504 E10.91123
G1 X102.599 Y103.296 E10.91351
G1 X102.599 Y97.639 E10.94879
G1 X102.765 Y97.738 E10.94999
G1 X102.899 Y97.836 E10.95103
G1 X102.899 Y103.099 E10.98385
G1 X102.929 Y103.081 E10.98407
G1 X103.154 Y102.962 E10.98566
G1 X103.199 Y102.934 E10.98599
G1 X103.199 Y98.055 E11.01641
G1 X103.226 Y98.074 E11.01662
G1 X103.499 Y98.303 E11.01884
G1 X103.499 Y102.743 E11.04653
G1 X103.799 Y102.525 E11.04884
G1 X103.799 Y98.591 E11.07338
G1 X104.099 Y98.922 E11.07616
G1 X104.099 Y102.277 E11.09709
G1 X104.161 Y102.223 E11.0976
G1 X104.324 Y102.006 E11.09929
G1 X104.399 Y101.821 E11.10054
G1 X104.399 Y99.436 E11.11541
G1 X104.433 Y99.515 E11.11595
G1 X104.635 Y100.132 E11.11999
G1 X104.699 Y100.42 E11.12183
G1 X104.699 Y100.819 E11.12432
M204 S1000
G0 F6000 X104.703 Y100.795
M204 S800
G1 F1200 X104.715 Y100.492 E11.12621
G1 X104.699 Y100.42 E11.12667
M204 S1000
G1 F1500 E4.62667
G0 F6000 X105.509 Y100.296
G0 X105.028 Y98.754
G0 X104.178 Y97.773
G0 X102.887 Y96.871
G0 X101.405 Y95.934
G0 X100.903 Y95.771
G0 X99.259 Y95.782
G0 X98.764 Y95.94
G0 X97.111 Y96.959
G0 X96.251 Y97.635
G0 X94.805 Y99.401
G0 X94.306 Y101.007
G0 X95.099 Y101.19
M204 S800
G1 F1500 E11.12667
G1 F1200 X95.099 Y101.436 E11.12821
G1 X95.096 Y101.424 E11.12829
G1 X95.088 Y101.238 E11.12945
M204 S1000
G1 F1500 E4.62945
G0 F300 X95.088 Y101.238 Z0.585
G0 F6000 X94.295 Y101.055
G0 X94.805 Y99.401
G0 X95.429 Y98.765
G0 X96.04 Y99.303
;TIME_ELAPSED:45.150771
;LAYER:-10
M204 S800
;TYPE:SUPPORT-INTERFACE
G1 F1500 E11.12945
G1 F1200 X95.944 Y99.404 E11.13032
G1 X95.768 Y99.583 E11.13188
G1 X95.755 Y99.6 E11.13201
G1 X104.461 Y99.6 E11.18631
G1 X104.56 Y99.9 E11.18828
G1 X95.528 Y99.9 E11.2446
G1 X95.48 Y99.984 E11.24521
G1 X95.393 Y100.2 E11.24666
G1 X104.651 Y100.2 E11.30439
G1 X104.715 Y100.492 E11.30626
G1 X104.714 Y100.5 E11.30631
G1 X95.29 Y100.5 E11.36508
G1 X95.193 Y100.8 E11.36705
G1 X104.702 Y100.8 E11.42635
G1 X104.666 Y101.008 E11.42766
G1 X104.636 Y101.1 E11.42827
G1 X95.121 Y101.1 E11.4876
G1 X95.088 Y101.238 E11.48849
G1 X95.094 Y101.4 E11.4895
G1 X104.54 Y101.4 E11.54841
G1 X104.444 Y101.7 E11.55037
G1 X95.164 Y101.7 E11.60825
G1 X95.173 Y101.736 E11.60848
G1 X95.259 Y102 E11.61021
G1 X104.326 Y102 E11.66675
G1 X104.324 Y102.006 E11.66679
G1 X104.161 Y102.223 E11.66848
G1 X104.072 Y102.3 E11.66922
G1 X95.359 Y102.3 E11.72356
G1 X95.486 Y102.6 E11.72559
G1 X103.695 Y102.6 E11.77678
G1 X103.448 Y102.779 E11.77868
G1 X103.253 Y102.9 E11.78011
G1 X95.726 Y102.9 E11.82705
G1 X95.876 Y103.026 E11.82828
G1 X96.115 Y103.2 E11.83012
G1 X102.736 Y103.2 E11.87141
G1 X102.304 Y103.5 E11.87469
G1 X96.567 Y103.5 E11.91047
G1 X96.649 Y103.549 E11.91106
G1 X97.179 Y103.749 E11.9146
G1 X97.285 Y103.8 E11.91533
G1 X101.959 Y103.8 E11.94448
G1 X101.765 Y103.975 E11.94611
G1 X101.661 Y104.1 E11.94712
G1 X97.909 Y104.1 E11.97052
G1 X97.964 Y104.126 E11.9709
G1 X98.368 Y104.4 E11.97394
G1 X101.412 Y104.4 E11.99293
G1 X101.244 Y104.604 E11.99457
G1 X101.176 Y104.7 E11.99531
G1 X98.75 Y104.7 E12.01044
G1 X99.086 Y105 E12.01325
G1 X100.896 Y105 E12.02453
G1 X100.848 Y105.045 E12.02494
G1 X100.535 Y105.185 E12.02708
G1 X100.209 Y105.214 E12.02912
G1 X99.825 Y105.214 E12.03152
G1 X99.511 Y105.192 E12.03348
G1 X99.181 Y105.069 E12.03568
G1 X99.1 Y105.012 E12.0363
M204 S1000
G1 F1500 E5.5363
G0 F6000 X98.562 Y105.627
G0 X95.896 Y104.048
G0 X94.973 Y103.306
G0 X94.587 Y102.566
G0 X94.269 Y101.357
G0 X94.401 Y100.602
G0 X94.805 Y99.401
G0 X95.429 Y98.765
G0 X96.043 Y99.3
M204 S800
G1 F1500 E12.0363
G1 F1200 X104.342 Y99.3 E12.08805
G1 X104.291 Y99.183 E12.08885
G1 X104.171 Y99.001 E12.09021
M204 S1000
G0 F6000 X104.171 Y99
M204 S800
G1 F1200 X96.277 Y99 E12.13944
G1 X96.44 Y98.791 E12.14109
G1 X96.498 Y98.7 E12.14176
G1 X103.898 Y98.7 E12.18791
G1 X103.693 Y98.474 E12.18981
G1 X103.612 Y98.4 E12.1905
G1 X96.693 Y98.4 E12.23365
G1 X96.838 Y98.201 E12.23518
G1 X96.954 Y98.1 E12.23614
G1 X103.258 Y98.1 E12.27545
G1 X103.226 Y98.074 E12.27571
G1 X102.851 Y97.8 E12.27861
G1 X97.337 Y97.8 E12.31299
G1 X97.566 Y97.633 E12.31476
G1 X97.78 Y97.5 E12.31633
G1 X102.37 Y97.5 E12.34496
G1 X102.263 Y97.436 E12.34573
G1 X102.166 Y97.383 E12.34642
G1 X101.862 Y97.2 E12.34864
G1 X98.333 Y97.2 E12.37064
G1 X98.359 Y97.186 E12.37083
G1 X98.686 Y96.967 E12.37328
G1 X98.778 Y96.9 E12.37399
G1 X101.417 Y96.9 E12.39045
G1 X101.348 Y96.85 E12.39098
G1 X101.045 Y96.668 E12.39319
G1 X100.852 Y96.6 E12.39446
G1 X99.355 Y96.6 E12.4038
G1 X99.406 Y96.585 E12.40413
G1 X99.738 Y96.557 E12.40621
G1 X100.479 Y96.557 E12.41083
G1 X100.794 Y96.58 E12.4128
M204 S1000
G1 F1500 E5.9128
G0 F300 X100.794 Y96.58 Z0.635
G0 F6000 X100.85 Y95.766
G0 X99.259 Y95.782
G0 X98.764 Y95.94
G0 X97.426 Y96.765
G0 X96.597 Y97.333
G0 X97.555 Y98.879
;TIME_ELAPSED:58.179598
;LAYER:-9
M204 S800
;TYPE:SUPPORT
G1 F1500 E12.4128
G1 F600 X98.251 Y98.373 E12.41816
G1 X98.389 Y98.373 E12.41902
G1 X98.6 Y98.219 E12.42065
G1 X98.668 Y98.219 E12.42108
G1 X99.576 Y97.558 E12.42808
G1 X100.62 Y97.558 E12.43459
G1 X101.4 Y98.126 E12.44061
G1 X101.648 Y98.272 E12.4424
G1 X101.741 Y98.272 E12.44298
