;FLAVOR:Marlin
;TIME:2379
;Filament used: 1.839m
;Layer height: 0.4
;MINX:86.37
;MINY:89.312
;MINZ:0.36
;MAXX:115.444
;MAXY:111.512
;MAXZ:35.01
;Generated with Cura_SteamEngine 4.8.0
M104 S215
M105
M109 S215
M82 ;absolute extrusion mode
G28 ;Home
G1 Z15.0 F2000 ;Move the platform
G92 E0
G92 E0
G1 F1500 E-6.5
;LAYER_COUNT:83
;LAYER:-5
M107
M204 S1000
G0 F6000 X101.149 Y96.262 Z0.36
M204 S800
;TYPE:SUPPORT-INTERFACE
G1 F1500 E0
G1 F900 X101.397 Y96.047 E0.0393
G1 X101.918 Y95.667 E0.11651
G1 X102.224 Y95.476 E0.1597
G1 X102.874 Y94.995 E0.25652
G1 X103.314 Y94.612 E0.32637
G1 X103.912 Y94.178 E0.41484
G1 X104.142 Y94.034 E0.44734
G1 X104.33 Y93.983 E0.47066
G1 X104.644 Y93.956 E0.5084
G1 X105.377 Y93.956 E0.59616
G1 X105.656 Y93.976 E0.62966
G1 X105.795 Y94.005 E0.64666
G1 X106.142 Y94.112 E0.69014
G1 X106.983 Y94.242 E0.79203
G1 X107.249 Y94.261 E0.82396
G1 X107.757 Y94.312 E0.88509
G1 X108.208 Y94.335 E0.93916
G1 X108.277 Y94.348 E0.94757
G1 X108.304 Y94.356 E0.95094
G1 X108.804 Y94.654 E1.02064
G1 X108.914 Y94.727 E1.03645
G1 X109.425 Y95.035 E1.10789
G1 X109.633 Y95.187 E1.13873
G1 X109.843 Y95.363 E1.17154
G1 X109.945 Y95.52 E1.19396
G1 X110.073 Y95.821 E1.23312
G1 X110.149 Y96.054 E1.26247
G1 X110.219 Y96.335 E1.29714
G1 X110.21 Y96.516 E1.31884
G1 X110.157 Y96.744 E1.34687
G1 X110.048 Y97.405 E1.42708
G1 X110.022 Y98.087 E1.5088
G1 X110.083 Y98.768 E1.59067
G1 X110.229 Y99.434 E1.67231
G1 X110.457 Y100.078 E1.75411
G1 X110.766 Y100.687 E1.83588
G1 X111.148 Y101.252 E1.91754
G1 X111.598 Y101.765 E1.99925
G1 X112.11 Y102.217 E2.08102
G1 X112.675 Y102.601 E2.16282
G1 X113.282 Y102.909 E2.24432
G1 X113.759 Y103.088 E2.30533
G1 X113.94 Y103.146 E2.32808
G1 X114.087 Y103.22 E2.34779
G1 X114.125 Y103.246 E2.3533
G1 X114.227 Y103.338 E2.36975
G1 X114.238 Y103.352 E2.37188
G1 X114.314 Y103.479 E2.3896
G1 X114.354 Y103.634 E2.40877
G1 X114.38 Y103.944 E2.44602
G1 X114.38 Y105.395 E2.61976
G1 X114.36 Y105.675 E2.65337
G1 X114.349 Y105.728 E2.65985
G1 X114.307 Y105.845 E2.67473
G1 X114.27 Y105.915 E2.68421
G1 X114.233 Y105.968 E2.69195
G1 X114.179 Y106.028 E2.70162
G1 X114.034 Y106.153 E2.72454
G1 X114.006 Y106.171 E2.72853
G1 X113.874 Y106.233 E2.74599
G1 X113.806 Y106.254 E2.75451
G1 X113.741 Y106.266 E2.76242
G1 X113.546 Y106.276 E2.7858
G1 X112.795 Y106.276 E2.87573
G1 X112.127 Y106.318 E2.95587
G1 X111.456 Y106.447 E3.03768
G1 X110.807 Y106.66 E3.11947
G1 X110.19 Y106.952 E3.2012
G1 X109.615 Y107.32 E3.28294
G1 X109.091 Y107.758 E3.36472
G1 X108.742 Y108.134 E3.42614
G1 X108.729 Y108.123 E3.42818
G1 X108.251 Y108.758 E3.52335
G1 X107.945 Y109.024 E3.5719
G1 X107.649 Y109.24 E3.61577
G1 X107.415 Y109.386 E3.6488
G1 X107.235 Y109.436 E3.67117
G1 X106.903 Y109.465 E3.71107
G1 X106.546 Y109.465 E3.75381
G1 X106.263 Y109.444 E3.78779
G1 X106.089 Y109.378 E3.81008
G1 X105.806 Y109.208 E3.84961
G1 X105.507 Y108.989 E3.89398
G1 X104.385 Y108.31 E4.05101
G1 X103.834 Y107.96 E4.12917
G1 X103.153 Y107.645 E4.21901
G1 X103.053 Y107.607 E4.23182
G1 X102.647 Y107.363 E4.28854
G1 X101.81 Y106.956 E4.39998
G1 X101.481 Y106.832 E4.44208
G1 X101.211 Y106.67 E4.47978
G1 X100.478 Y106.135 E4.58844
G1 X100.217 Y105.915 E4.62931
G1 X100.162 Y105.861 E4.63854
G1 X99.61 Y105.396 E4.72496
G1 X99.48 Y105.3 E4.74431
G1 X99.27 Y105.124 E4.77712
G1 X99.169 Y104.968 E4.79937
G1 X99.041 Y104.667 E4.83853
G1 X98.765 Y103.823 E4.94486
G1 X98.696 Y103.539 E4.97985
G1 X98.649 Y103.116 E5.03081
G1 X98.529 Y102.435 E5.11361
G1 X98.515 Y102.375 E5.12098
G1 X98.527 Y102.126 E5.15083
G1 X98.536 Y102.056 E5.15928
G1 X98.582 Y101.57 E5.21774
G1 X98.597 Y101.252 E5.25585
G1 X98.671 Y100.932 E5.29518
G1 X98.909 Y100.204 E5.38689
G1 X99.016 Y99.937 E5.42133
G1 X99.063 Y99.857 E5.43244
G1 X99.31 Y99.507 E5.48373
G1 X99.575 Y99.01 E5.55117
G1 X99.588 Y99.014 E5.5528
G1 X99.904 Y98.235 E5.65346
G1 X100.206 Y97.859 E5.7112
G1 X100.594 Y97.308 E5.79189
G1 X100.984 Y96.536 E5.89546
G1 X101.041 Y96.397 E5.91344
G1 X101.149 Y96.262 E5.93414
M204 S1000
G0 F6000 X100.8 Y96.9
M204 S800
G1 F900 X100.8 Y106.37 E7.06805
M204 S1000
G0 F6000 X102.4 Y107.242
M204 S800
G1 F900 X102.4 Y95.345 E8.49255
M204 S1000
G0 F6000 X104 Y94.122
M204 S800
G1 F900 X104 Y108.065 E10.16204
M204 S1000
G0 F6000 X105.6 Y109.057
M204 S800
G1 F900 X105.6 Y93.972 E11.96827
M204 S1000
G0 F6000 X107.2 Y94.258
M204 S800
G1 F900 X107.2 Y109.44 E13.7861
M204 S1000
G0 F6000 X108.8 Y108.072
M204 S800
G1 F900 X108.8 Y94.652 E15.39297
M204 S1000
G1 F1500 E8.89297
G0 F6000 X109.495 Y93.835
G0 X110.285 Y94.345
G0 X110.685 Y94.706
G0 X111.071 Y95.447
G0 X111.264 Y96.217
G0 X111.256 Y99.146
G0 X110.4 Y99.917
M204 S800
G1 F1500 E15.39297
G1 F900 X110.4 Y106.853 E16.22346
M204 S1000
G0 F6000 X112 Y106.343
M204 S800
G1 F900 X112 Y102.12 E16.72911
M204 S1000
G0 F6000 X113.6 Y103.029
M204 S800
G1 F900 X113.6 Y106.274 E17.11765
M204 S1000
G1 F1500 E10.61765
G0 F6000 X112.833 Y107.34
G0 X107.776 Y110.391
G0 X106.954 Y110.529
G0 X105.961 Y110.468
G0 X105.223 Y110.099
G0 X100.623 Y107.559
G0 X98.833 Y106.146
G0 X99.2 Y105.015
M204 S800
G1 F1500 E17.11765
G1 F900 X99.2 Y99.662 E17.7586
M204 S1000
G1 F1500 E11.2586
G0 F300 X99.2 Y99.662 Z0.96
G0 F6000 X98.058 Y99.469
G0 X97.538 Y101.107
G0 X97.471 Y102.412
G0 X97.742 Y104.116
G0 X98.899 Y104.556
;TIME_ELAPSED:18.035793
;LAYER:-4
M204 S800
;TYPE:SUPPORT
G1 F1500 E17.7586
G1 F900 X100.931 Y106.587 E18.1886
G1 X100.408 Y106.208 E18.28527
G1 X100.163 Y106.001 E18.33328
G1 X100.095 Y105.934 E18.34757
G1 X99.548 Y105.474 E18.45454
G1 X99.43 Y105.387 E18.47648
G1 X99.191 Y105.186 E18.52322
G1 X99.08 Y105.017 E18.55348
G1 X98.946 Y104.701 E18.60485
M204 S1000
G0 F6000 X100.931 Y106.587
M204 S800
G1 F900 X101.159 Y106.754 E18.64715
G1 X101.438 Y106.922 E18.6959
G1 X101.769 Y107.047 E18.74885
G1 X102.599 Y107.449 E18.88688
G1 X103.01 Y107.697 E18.95873
G1 X103.114 Y107.736 E18.97535
G1 X103.293 Y107.818 E19.00482
G1 X98.538 Y103.063 E20.01129
G1 X98.43 Y102.454 E20.10387
G1 X98.414 Y102.381 E20.11505
G1 X98.427 Y102.118 E20.15446
G1 X98.437 Y102.044 E20.16564
G1 X98.454 Y101.848 E20.19508
G1 X106.09 Y109.484 E21.81137
G1 X106.234 Y109.539 E21.83444
G1 X106.253 Y109.544 E21.83738
G1 X106.539 Y109.564 E21.88029
G1 X106.912 Y109.564 E21.93612
G1 X107.253 Y109.533 E21.98737
G1 X107.266 Y109.529 E21.9894
G1 X98.591 Y100.853 E23.82571
G1 X98.817 Y100.162 E23.93452
G1 X98.878 Y100.009 E23.95918
G1 X107.985 Y109.116 E25.88682
G1 X108.011 Y109.098 E25.89155
G1 X108.325 Y108.823 E25.95403
G1 X108.539 Y108.539 E26.00725
G1 X99.303 Y99.303 E27.9622
G1 X99.526 Y98.888 E28.03271
G1 X99.67 Y98.538 E28.08936
G1 X109.064 Y107.933 E30.07785
G1 X109.158 Y107.83 E30.09873
G1 X109.668 Y107.405 E30.19809
G1 X100.096 Y97.833 E32.22416
G1 X100.125 Y97.797 E32.23108
G1 X100.507 Y97.256 E32.3302
G1 X100.554 Y97.16 E32.3462
G1 X110.37 Y106.976 E34.42391
G1 X110.844 Y106.753 E34.50231
G1 X111.17 Y106.645 E34.55371
G1 X100.928 Y96.403 E36.7216
G1 X100.95 Y96.352 E36.72991
G1 X100.956 Y96.343 E36.73153
G1 X101.078 Y96.19 E36.76082
G1 X101.336 Y95.966 E36.81196
G1 X101.502 Y95.845 E36.8427
G1 X112.084 Y106.428 E39.08266
G1 X112.138 Y106.418 E39.09088
G1 X112.798 Y106.376 E39.18986
G1 X113.163 Y106.375 E39.24449
G1 X102.175 Y95.387 E41.57028
G1 X102.809 Y94.917 E41.6884
G1 X102.824 Y94.905 E41.69128
G1 X114.124 Y106.205 E44.08311
G1 X114.247 Y106.099 E44.10741
G1 X114.31 Y106.029 E44.1215
G1 X114.358 Y105.963 E44.13372
G1 X114.396 Y105.891 E44.1459
G1 X114.445 Y105.753 E44.16782
G1 X114.459 Y105.688 E44.17777
G1 X114.479 Y105.428 E44.2168
G1 X103.445 Y94.394 E46.55233
G1 X103.854 Y94.096 E46.62807
G1 X104.106 Y93.939 E46.67251
G1 X104.119 Y93.937 E46.67448
G1 X110.919 Y100.737 E48.11381
G1 X111.226 Y101.191 E48.19583
G1 X111.668 Y101.693 E48.29594
G1 X112.171 Y102.137 E48.39636
M204 S1000
G0 F6000 X110.919 Y100.737
M204 S800
G1 F900 X110.851 Y100.636 E48.41458
G1 X110.548 Y100.037 E48.51505
G1 X110.324 Y99.406 E48.61527
G1 X110.213 Y98.9 E48.6928
G1 X105.17 Y93.856 E49.76034
G1 X105.382 Y93.855 E49.79207
G1 X105.667 Y93.875 E49.83483
G1 X105.812 Y93.905 E49.857
G1 X106.164 Y94.013 E49.9121
G1 X106.512 Y94.067 E49.96481
G1 X110.136 Y97.691 E50.73189
G1 X110.147 Y97.415 E50.77323
G1 X110.255 Y96.764 E50.872
G1 X110.271 Y96.695 E50.8826
G1 X107.789 Y94.213 E51.40796
G1 X108.217 Y94.234 E51.47209
G1 X108.301 Y94.25 E51.48489
G1 X108.35 Y94.267 E51.49265
G1 X108.854 Y94.567 E51.58044
G1 X108.967 Y94.642 E51.60074
G1 X109.482 Y94.953 E51.69078
G1 X109.681 Y95.098 E51.72764
G1 X109.921 Y95.301 E51.77468
G1 X110.032 Y95.47 E51.80495
G1 X110.165 Y95.786 E51.85626
G1 X110.244 Y96.024 E51.89379
G1 X110.318 Y96.33 E51.94091
G1 X110.308 Y96.532 E51.97118
M204 S1000
G1 F1500 E45.47118
G0 F6000 X111.204 Y96.943
G0 X115.262 Y102.987
G0 X115.408 Y103.46
G0 X114.479 Y103.933
M204 S800
G1 F1500 E51.97118
G1 F900 X114.453 Y103.618 E52.01849
G1 X114.407 Y103.441 E52.04586
G1 X114.402 Y103.429 E52.04781
G1 X114.32 Y103.296 E52.07119
G1 X114.3 Y103.27 E52.0761
G1 X114.185 Y103.166 E52.09931
G1 X114.137 Y103.133 E52.10803
G1 X113.977 Y103.053 E52.1348
G1 X113.791 Y102.992 E52.1641
G1 X113.321 Y102.816 E52.23921
G1 X112.725 Y102.514 E52.33922
G1 X112.637 Y102.454 E52.35516
G1 X114.479 Y104.297 E52.74515
M204 S1000
G1 F1500 E46.24515
G0 F300 X114.479 Y104.297 Z1.36
G0 F6000 X115.444 Y103.896
G0 X115.324 Y103.134
G0 X115.003 Y102.605
G0 X111.992 Y100.601
G0 X111.347 Y101.1
;TIME_ELAPSED:36.050386
;LAYER:-3
M204 S800
;TYPE:SUPPORT-INTERFACE
G1 F1500 E52.74515
G1 F1200 X98.376 Y101.1 E53.39228
G1 X98.348 Y101.217 E53.39828
G1 X98.34 Y101.4 E53.40742
G1 X111.611 Y101.4 E54.06951
G1 X111.776 Y101.588 E54.08199
G1 X111.903 Y101.7 E54.09044
G1 X98.32 Y101.7 E54.7681
G1 X98.291 Y102 E54.78313
G1 X112.243 Y102 E55.4792
G1 X112.264 Y102.019 E55.48062
G1 X112.678 Y102.3 E55.50558
G1 X98.268 Y102.3 E56.2245
G1 X98.263 Y102.385 E56.22874
G1 X98.284 Y102.486 E56.23389
G1 X98.304 Y102.6 E56.23966
G1 X113.226 Y102.6 E56.98413
G1 X113.383 Y102.68 E56.99292
G1 X113.842 Y102.852 E57.01737
G1 X113.96 Y102.9 E57.02373
G1 X98.357 Y102.9 E57.80216
G1 X98.402 Y103.152 E57.81494
G1 X98.407 Y103.2 E57.81734
G1 X114.431 Y103.2 E58.61678
G1 X114.55 Y103.394 E58.62814
G1 X114.578 Y103.5 E58.63361
G1 X98.439 Y103.5 E59.43879
G1 X98.448 Y103.575 E59.44255
G1 X98.502 Y103.8 E59.4541
G1 X114.62 Y103.8 E60.25823
G1 X114.63 Y103.923 E60.26439
G1 X114.63 Y104.1 E60.27322
G1 X98.593 Y104.1 E61.07331
G1 X98.691 Y104.4 E61.08905
G1 X114.63 Y104.4 E61.88425
G1 X114.63 Y104.7 E61.89922
G1 X98.789 Y104.7 E62.68953
G1 X98.809 Y104.759 E62.69264
G1 X98.91 Y105 E62.70567
G1 X114.63 Y105 E63.48995
G1 X114.63 Y105.3 E63.50491
G1 X99.092 Y105.3 E64.28011
G1 X99.339 Y105.507 E64.29619
G1 X99.456 Y105.593 E64.30343
G1 X99.464 Y105.6 E64.30396
G1 X114.615 Y105.6 E65.05985
G1 X114.607 Y105.714 E65.06555
G1 X114.538 Y105.9 E65.07545
G1 X99.82 Y105.9 E65.80973
G1 X99.995 Y106.047 E65.82113
G1 X100.056 Y106.106 E65.82537
G1 X100.167 Y106.2 E65.83262
G1 X114.332 Y106.2 E66.53932
G1 X114.179 Y106.357 E66.55026
G1 X113.866 Y106.497 E66.56736
G1 X113.832 Y106.5 E66.56906
G1 X100.553 Y106.5 E67.23156
G1 X100.965 Y106.8 E67.25698
G1 X111.18 Y106.8 E67.76661
G1 X110.9 Y106.892 E67.78132
G1 X110.462 Y107.1 E67.80551
G1 X101.482 Y107.1 E68.25352
G1 X101.711 Y107.186 E68.26572
G1 X102.151 Y107.4 E68.29013
G1 X109.954 Y107.4 E68.67943
G1 X109.763 Y107.522 E68.69074
G1 X109.55 Y107.7 E68.70458
G1 X102.722 Y107.7 E69.04523
G1 X102.946 Y107.834 E69.05826
G1 X103.056 Y107.876 E69.06413
G1 X103.324 Y108 E69.07886
G1 X109.207 Y108 E69.37237
G1 X108.929 Y108.3 E69.39277
G1 X103.902 Y108.3 E69.64357
G1 X104.257 Y108.525 E69.66454
G1 X104.38 Y108.6 E69.67173
G1 X108.682 Y108.6 E69.88635
G1 X108.456 Y108.9 E69.90509
G1 X104.876 Y108.9 E70.0837
G1 X105.369 Y109.198 E70.11244
M204 S1000
G0 F6000 X105.371 Y109.2
M204 S800
G1 F1200 X108.124 Y109.2 E70.24979
G1 X108.1 Y109.221 E70.25138
G1 X107.795 Y109.443 E70.2702
G1 X107.704 Y109.5 E70.27556
G1 X105.805 Y109.5 E70.3703
M204 S1000
G0 F6000 X105.977 Y109.603
M204 S800
G1 F1200 X106.232 Y109.693 E70.38379
G1 X106.543 Y109.715 E70.39934
G1 X106.925 Y109.715 E70.4184
G1 X107.275 Y109.685 E70.43593
G1 X107.527 Y109.611 E70.44903
G1 X107.704 Y109.5 E70.45945
M204 S1000
G1 F1500 E63.95945
G0 F6000 X108.247 Y110.121
G0 X114.676 Y107.004
G0 X115.182 Y106.468
G0 X115.416 Y105.823
G0 X115.408 Y103.46
G0 X115.262 Y102.987
G0 X115.003 Y102.605
G0 X111.992 Y100.601
G0 X111.346 Y101.099
M204 S800
G1 F1500 E70.45945
G1 F1200 X111.144 Y100.8 E70.47746
G1 X98.453 Y100.8 E71.11061
G1 X98.55 Y100.5 E71.12634
G1 X110.951 Y100.5 E71.74503
G1 X110.799 Y100.2 E71.76181
G1 X98.648 Y100.2 E72.36803
G1 X98.678 Y100.107 E72.3729
G1 X98.762 Y99.9 E72.38405
G1 X110.659 Y99.9 E72.97759
G1 X110.553 Y99.6 E72.99346
G1 X98.939 Y99.6 E73.57289
G1 X99.097 Y99.376 E73.58656
G1 X99.138 Y99.3 E73.59087
G1 X110.455 Y99.3 E74.15548
G1 X110.39 Y99 E74.17079
G1 X99.298 Y99 E74.72418
G1 X99.403 Y98.801 E74.7354
G1 X99.445 Y98.7 E74.74086
G1 X110.328 Y98.7 E75.28381
G1 X110.302 Y98.4 E75.29884
G1 X99.567 Y98.4 E75.83441
G1 X99.68 Y98.121 E75.84943
G1 X99.692 Y98.1 E75.85063
G1 X110.275 Y98.1 E76.37862
G1 X110.273 Y98.081 E76.37957
G1 X110.283 Y97.8 E76.3936
G1 X99.933 Y97.8 E76.90997
G1 X100.006 Y97.708 E76.91583
G1 X100.153 Y97.5 E76.92853
G1 X110.294 Y97.5 E77.43447
G1 X110.297 Y97.43 E77.43796
G1 X110.335 Y97.2 E77.44959
G1 X100.364 Y97.2 E77.94705
G1 X100.379 Y97.178 E77.94838
G1 X100.52 Y96.9 E77.96393
G1 X110.385 Y96.9 E78.4561
G1 X110.403 Y96.793 E78.46151
G1 X110.447 Y96.6 E78.47139
G1 X100.672 Y96.6 E78.95906
G1 X100.757 Y96.432 E78.96846
G1 X100.814 Y96.3 E78.97563
G1 X110.466 Y96.3 E79.45717
G1 X110.393 Y96 E79.47257
G1 X101.07 Y96 E79.9377
G1 X101.243 Y95.849 E79.94916
G1 X101.448 Y95.7 E79.9618
G1 X110.294 Y95.7 E80.40313
G1 X110.166 Y95.4 E80.4194
G1 X101.875 Y95.4 E80.83304
G1 X102.084 Y95.269 E80.84535
G1 X102.313 Y95.1 E80.85955
G1 X109.918 Y95.1 E81.23896
G1 X109.778 Y94.983 E81.24806
G1 X109.561 Y94.824 E81.26148
G1 X109.522 Y94.8 E81.26377
G1 X102.717 Y94.8 E81.60327
G1 X103.061 Y94.5 E81.62604
G1 X109.024 Y94.5 E81.92354
G1 X108.932 Y94.439 E81.92905
G1 X108.532 Y94.2 E81.95229
G1 X103.456 Y94.2 E82.20554
G1 X103.763 Y93.977 E82.22447
G1 X103.887 Y93.9 E82.23175
G1 X106.407 Y93.9 E82.35747
M204 S1000
G0 F6000 X106.198 Y93.868
M204 S800
G1 F1200 X105.854 Y93.761 E82.37544
G1 X105.695 Y93.729 E82.38354
G1 X105.38 Y93.706 E82.39929
G1 X104.623 Y93.706 E82.43706
G1 X104.291 Y93.734 E82.45368
G1 X104.03 Y93.81 E82.46724
G1 X103.887 Y93.9 E82.47567
M204 S1000
G1 F1500 E75.97567
G0 F300 X103.887 Y93.9 Z1.76
G0 F6000 X103.455 Y93.21
G0 X103.776 Y93.031
G0 X104.594 Y92.892
G0 X105.804 Y92.92
G0 X108.664 Y93.354
G0 X110.285 Y94.345
G0 X110.685 Y94.706
G0 X115.324 Y103.134
G0 X115.421 Y103.75
G0 X115.42 Y105.771
G0 X114.606 Y105.713
;TIME_ELAPSED:69.794046
;LAYER:-2
M204 S800
;TYPE:SUPPORT-INTERFACE
G1 F1500 E82.47567
G1 F1200 X114.629 Y105.397 E82.49148
G1 X114.629 Y103.922 E82.56507
G1 X114.602 Y103.597 E82.58134
G1 X114.599 Y103.586 E82.58191
G1 X114.599 Y105.732 E82.68897
G1 X114.484 Y106.043 E82.70552
G1 X114.299 Y106.233 E82.71875
G1 X114.299 Y103.075 E82.8763
G1 X114.21 Y103.002 E82.88204
G1 X113.999 Y102.916 E82.89341
G1 X113.999 Y106.437 E83.06907
G1 X113.865 Y106.496 E83.07638
G1 X113.699 Y106.511 E83.08469
G1 X113.699 Y102.798 E83.26994
G1 X113.399 Y102.686 E83.28591
G1 X113.399 Y106.525 E83.47744
G1 X113.099 Y106.525 E83.49241
G1 X113.099 Y102.536 E83.69142
G1 X112.802 Y102.384 E83.70806
M204 S1000
G0 F6000 X112.799 Y102.382
M204 S800
G1 F1200 X112.799 Y106.526 E83.91481
G1 X112.499 Y106.545 E83.92981
G1 X112.499 Y102.179 E84.14763
G1 X112.263 Y102.018 E84.16188
G1 X112.199 Y101.962 E84.16612
G1 X112.199 Y106.564 E84.39572
G1 X112.157 Y106.566 E84.39782
G1 X111.899 Y106.616 E84.41093
G1 X111.899 Y101.697 E84.65634
G1 X111.775 Y101.587 E84.66461
G1 X111.599 Y101.387 E84.6779
G1 X111.599 Y106.673 E84.94162
G1 X111.517 Y106.688 E84.94578
G1 X111.299 Y106.76 E84.95723
G1 X111.299 Y101.031 E85.24305
G1 X110.999 Y100.588 E85.26974
G1 X110.999 Y106.859 E85.5826
